X:174
T: ES WAR EINMAL EIN BRAVER HUSAR
N: E0093C
O: Europa, Mitteleuropa, Deutschland, Oberlahnkreis; Kreis Wetzlar
R: erzaehlendes Volks - Lied, Sage, Liebe, Leid, Tod
M: 3/4
L: 1/16
K: Eb
E2E2c2 | B4G2B2c2c2 | B4G2
e2B2G2 | G4F2B2B3A | A4G2
E2E2c2 | B4G2B2c2c2 | B4G2
e2B2G2 | G4F2B2B3A | G4z2

@@@ Tune index: 3824
